img/svg/person.svg

<svg xmlns="http://www.w3.org/2000/svg" preserveAspectRatio="xMidYMid" width="19" height="18" viewBox="0 0 19 18"><path d="M14.877 13.448c-2.491-.898-3.288-1.656-3.288-3.279 0-.974.761-.656 1.095-2.44.139-.74.81-.012.939-1.701 0-.674-.367-.841-.367-.841s.187-.996.26-1.763c.09-.956-.558-3.424-4.016-3.424s-4.106 2.468-4.016 3.424c.073.767.26 1.763.26 1.763s-.367.167-.367.841c.128 1.689.8.961.939 1.701.334 1.784 1.095 1.466 1.095 2.44 0 1.623-.796 2.381-3.288 3.279-2.499.901-4.123 1.82-4.123 2.447v2.105h19v-2.105c0-.627-1.624-1.546-4.123-2.447z" class="cls-2" fill-rule="evenodd"/></svg>

<svg xmlns="http://www.w3.org/2000/svg" xmlns:xlink="http://www.w3.org/1999/xlink" preserveAspectRatio="xMidYMid" width="19" height="18" viewBox="0 0 19 18">
  <path d="M14.877,13.448 C12.386,12.550 11.589,11.792 11.589,10.169 C11.589,9.195 12.350,9.513 12.684,7.729 C12.823,6.989 13.494,7.717 13.623,6.028 C13.623,5.354 13.256,5.187 13.256,5.187 C13.256,5.187 13.443,4.191 13.516,3.424 C13.606,2.468 12.958,0.000 9.500,0.000 C6.042,0.000 5.394,2.468 5.484,3.424 C5.557,4.191 5.744,5.187 5.744,5.187 C5.744,5.187 5.377,5.354 5.377,6.028 C5.505,7.717 6.177,6.989 6.316,7.729 C6.650,9.513 7.411,9.195 7.411,10.169 C7.411,11.792 6.615,12.550 4.123,13.448 C1.624,14.349 0.000,15.268 0.000,15.895 C0.000,16.521 0.000,18.000 0.000,18.000 C0.000,18.000 9.500,18.000 9.500,18.000 C9.500,18.000 19.000,18.000 19.000,18.000 C19.000,18.000 19.000,16.521 19.000,15.895 C19.000,15.268 17.376,14.349 14.877,13.448 Z" id="path-1" class="cls-2" fill-rule="evenodd"/>
</svg>
